assets/options_media_icon.svg

<svg width="40" height="40" viewBox="0 0 40 40" fill="none" xmlns="http://www.w3.org/2000/svg">
<circle cx="20" cy="20" r="19" stroke="black" stroke-width="2"/>
<path d="M20 21C20.5523 21 21 20.5523 21 20C21 19.4477 20.5523 19 20 19C19.4477 19 19 19.4477 19 20C19 20.5523 19.4477 21 20 21Z" stroke="black" stroke-width="2" stroke-linecap="round" stroke-linejoin="round"/>
<path d="M20 14C20.5523 14 21 13.5523 21 13C21 12.4477 20.5523 12 20 12C19.4477 12 19 12.4477 19 13C19 13.5523 19.4477 14 20 14Z" stroke="black" stroke-width="2" stroke-linecap="round" stroke-linejoin="round"/>
<path d="M20 28C20.5523 28 21 27.5523 21 27C21 26.4477 20.5523 26 20 26C19.4477 26 19 26.4477 19 27C19 27.5523 19.4477 28 20 28Z" stroke="black" stroke-width="2" stroke-linecap="round" stroke-linejoin="round"/>
</svg>

<?xml version="1.0" encoding="utf-8"?>
<!-- Generator: Adobe Illustrator 27.2.0, SVG Export Plug-In . SVG Version: 6.00 Build 0)  -->
<svg version="1.1" xmlns="http://www.w3.org/2000/svg" xmlns:xlink="http://www.w3.org/1999/xlink" x="0px" y="0px"
	 viewBox="0 0 40 40" style="enable-background:new 0 0 40 40;" xml:space="preserve">
<style type="text/css">
	.st0{fill:none;stroke:#FFFFFF;stroke-width:2;}
	.st1{fill:none;stroke:#FFFFFF;stroke-width:2;stroke-linecap:round;stroke-linejoin:round;}
</style>
<g id="Layer_2">
	<rect width="40" height="40"/>
</g>
<g id="Layer_1">
	<circle class="st0" cx="20" cy="20" r="19"/>
	<path class="st1" d="M20,21c0.6,0,1-0.4,1-1s-0.4-1-1-1s-1,0.4-1,1S19.4,21,20,21z"/>
	<path class="st1" d="M20,14c0.6,0,1-0.4,1-1s-0.4-1-1-1s-1,0.4-1,1S19.4,14,20,14z"/>
	<path class="st1" d="M20,28c0.6,0,1-0.4,1-1s-0.4-1-1-1s-1,0.4-1,1S19.4,28,20,28z"/>
</g>
</svg>
